X: 42217
T: Way To Judique, The
R: jig
M: 6/8
K: Amajor
efe c2d|eae c2e|dcd B2c|d3 dcd|
efe cde|f=gf dfa|g2b gfg|a3 a3:|
|:agf edc|Bcd f2e|cde a2e|cde f2g|
agf edc|Bcd f2a|efe dcB|A3 A3:|

